src/assets/logo.svg

<?xml version="1.0" encoding="UTF-8"?>
<svg overflow="hidden" viewBox="0 0 2406 2406" xml:space="preserve" xmlns="http://www.w3.org/2000/svg"><defs><clipPath id="d"><rect width="2406" height="2406"/></clipPath><clipPath id="c"><rect x="309" y="299" width="1788" height="1808"/></clipPath><clipPath id="b"><rect x="309" y="299" width="1788" height="1808"/></clipPath><clipPath id="a"><rect x="309" y="299" width="7357" height="1808"/></clipPath></defs><g clip-path="url(#d)"><rect x="1203" y="1203" width="1203" height="1203" fill="#74AA9C"/><path d="m1 578.44c0-318.91 258.53-577.44 577.44-577.44h1249.1c318.91 0 577.44 258.53 577.44 577.44v1250.1c0 318.91-258.53 577.44-577.44 577.44h-1249.1c-318.91 0-577.44-258.53-577.44-577.44z" fill="#74AA9C" fill-rule="evenodd"/><g clip-path="url(#c)"><g clip-path="url(#b)"><g clip-path="url(#a)"><path transform="matrix(1.0013 0 0 1 309 299.05)" d="m4342 703.45v0.608c-3.66 0-7.35 0.607-11.02 0.607-3.66 0-7.35-0.607-11.02-0.607-218.56 0-353.86 136.54-353.86 355.7v107.75c0 211.21 137.15 342.23 356.92 342.23 4.5 0.12 9-0.08 13.47-0.6 3.06 0 5.51 0.6 8.57 0.6 147.54 0 250.41-53.86 315.9-165.3l-130.4-75.32c-43.47 64.28-101.63 112.65-184.89 112.65-111.42 0-178.15-68.57-178.15-184.28v-30.61h516.72v-127.34c0-204.48-134.07-336.11-342.24-336.11zm-11.02 125.52c101.64 4.902 162.85 72.238 162.85 183.04v30.61h-326.91v-17.77c0-122.43 58.16-191 164.06-195.91zm-802.6-124.91c-97.34 0-181.21 40.414-225.29 107.75l-11.02 17.138v-106.54h-184.89v1034.1h194.07v-361.19l11.02 16.53c41.63 61.82 123.06 98.55 217.95 98.55h4.9 4.28c159.79 0 320.8-104.08 320.8-337.33v-131.01c0-167.75-99.19-337.33-322.04-337.33l-1.22-0.607h-4.27zm-45.3 145.71c112.65 1.843 182.44 78.356 182.44 200.81v112.63c0 122.44-70.42 198.37-184.28 200.82-105.91-1.84-179.99-82.65-179.99-197.76v-115.71c0-116.32 74.69-198.36 181.83-200.81zm2515-401-373.45 1043.2h209.99l71.63-223.46h407.72v2.45l71.64 221.61h209.99l-374.06-1043.2h-22.04l-0.61-0.607zm111.44 179.38 156.1 492.85h-313.47zm1237.3-32.453v-146.93h-640.38v146.93h224.67v748.13h-224.67v146.93h640.38v-146.93h-224.68v-748.13zm-2107.3 108.38h-5.51-3.06c-108.36 0-185.5 36.726-223.46 107.14l-11.63 21.433v-110.2h-184.89v768.94h194.07v-457.94c0-107.76 58.16-169.58 158.55-171.42 96.13 1.844 151.23 62.455 151.23 167.14v462.22h194.06v-495.3c0-183.05-100.39-292.04-268.75-292.04zm-2756.2-276.74c-285.91 0-464.06 178.17-464.06 465.3v154.89c0 287.14 177.54 465.28 464.06 465.28h4.3 4.27c285.92 0 464.06-178.14 464.06-465.28v-154.89c0-287.13-178.14-465.3-464.06-465.3h-4.27zm4.3 155.52c170.2 1.844 268.15 110.81 268.15 299.37v176.32c0 188.56-97.95 297.55-268.15 299.37-170.21-1.84-268.17-110.81-268.17-299.37v-176.32c0-188.56 97.96-297.54 268.17-299.37zm-1690.3-582.83c-197.76 0-373.45 127.34-434.69 315.29-127.14 26.207-236.86 105.82-301.21 218.56-99.182 171.42-76.534 386.92 56.338 533.85-41.022 123.07-26.943 257.74 38.571 369.18 98.574 172.02 296.92 260.19 491 219.16 85.968 97.03 209.54 152.35 339.17 151.83 197.75 0 373.45-127.33 434.69-315.29 127.34-26.33 236.93-105.92 300.6-218.55 99.79-171.42 77.14-386.93-55.71-533.85v-0.608c41-123.06 26.94-257.83-38.57-369.78-98.6-171.42-296.96-259.6-490.42-218.58-86.36-96.764-210.09-151.82-339.78-151.2zm0 117.56-0.607 0.608c79.592 0 156.13 27.55 217.35 78.378-2.45 1.214-7.36 4.273-11.02 6.117l-359.98 207.54c-18.374 10.412-29.394 30.001-29.394 51.434v487.32l-154.89-89.376v-402.84c-0.072-187.11 151.44-338.91 338.54-339.2zm433.65 141.87c121.42-0.233 233.69 64.525 294.29 169.75 39.18 68.573 53.86 148.77 40.39 226.52-2.45-1.844-7.33-4.273-10.41-6.117l-359.98-208.17c-18.42-10.417-40.95-10.417-59.37 0l-421.83 243.66v-178.77l348.35-201.42c51.22-29.694 109.35-45.377 168.56-45.469zm-890.36 185.04v427.94c0 21.433 11.02 40.415 29.394 51.435l421.2 243.05-155.52 89.99-347.74-200.82c-161.81-93.774-217.14-300.86-123.65-462.84 39.607-68.653 101.98-121.28 176.32-148.77zm806.9 105.91 348.35 200.82c162.25 93.672 217.33 300.6 123.66 462.84l0.6 0.61c-39.78 68.57-102.24 121.22-176.32 148.17v-427.97c0-21.433-11.02-41.022-29.39-51.413l-421.81-243.68zm-255.91 147.56 177.56 102.85v205.08l-177.56 102.85-177.54-102.85v-205.08zm279.17 161.64 154.89 89.376v402.24c0 187.34-151.83 339.17-338.55 339.17v-0.6c-78.986 0-156.13-27.56-216.74-78.36 2.452-1.22 7.962-4.3 11.02-6.14l359.97-207.54c18.38-10.41 30.01-30 29.38-51.43zm-101.03 263.24v178.76l-348.35 200.81c-162.24 93.06-369.18 37.96-462.85-123.67h0.608c-39.786-67.97-53.886-148.78-40.415-226.52 2.451 1.84 7.354 4.27 10.413 6.11l359.98 208.17c18.42 10.42 40.954 10.42 59.374 0z" fill="#fff"/></g></g></g></g></svg>

<svg width="2406" height="2406" xmlns="http://www.w3.org/2000/svg" xmlns:xlink="http://www.w3.org/1999/xlink" xml:space="preserve" overflow="hidden"><defs><clipPath id="clip0"><rect x="0" y="0" width="2406" height="2406"/></clipPath><clipPath id="clip1"><rect x="309" y="299" width="1788" height="1808"/></clipPath><clipPath id="clip2"><rect x="309" y="299" width="1788" height="1808"/></clipPath><clipPath id="clip3"><rect x="309" y="299" width="7357" height="1808"/></clipPath></defs><g clip-path="url(#clip0)"><rect x="1203" y="1203" width="1203" height="1203" fill="#74AA9C" fill-opacity="1"/><path d="M1.00003 578.439C1.00003 259.528 259.529 1.00003 578.44 1.00003L1827.56 1.00003C2146.47 1.00003 2405 259.528 2405 578.439L2405 1828.56C2405 2147.47 2146.47 2406 1827.56 2406L578.44 2406C259.529 2406 1.00003 2147.47 1.00003 1828.56Z" fill="#74AA9C" fill-rule="evenodd" fill-opacity="1"/><g clip-path="url(#clip1)"><g clip-path="url(#clip2)"><g clip-path="url(#clip3)"><path d="M4341.99 703.447 4341.99 704.055C4338.33 704.055 4334.64 704.662 4330.97 704.662 4327.31 704.662 4323.62 704.055 4319.95 704.055 4101.39 704.055 3966.09 840.592 3966.09 1059.76L3966.09 1167.51C3966.09 1378.72 4103.24 1509.74 4323.01 1509.74 4327.51 1509.86 4332.01 1509.66 4336.48 1509.14 4339.54 1509.14 4341.99 1509.74 4345.05 1509.74 4492.59 1509.74 4595.46 1455.88 4660.95 1344.44L4530.55 1269.12C4487.08 1333.4 4428.92 1381.77 4345.66 1381.77 4234.24 1381.77 4167.51 1313.2 4167.51 1197.49L4167.51 1166.88 4684.23 1166.88 4684.23 1039.54C4684.23 835.06 4550.16 703.426 4341.99 703.426ZM4330.97 828.965C4432.61 833.867 4493.82 901.203 4493.82 1012.01L4493.82 1042.62 4166.91 1042.62 4166.91 1024.85C4166.91 902.418 4225.07 833.846 4330.97 828.943ZM3528.37 704.055C3431.03 704.055 3347.16 744.469 3303.08 811.805L3292.06 828.943 3292.06 722.407 3107.17 722.407 3107.17 1756.46 3301.24 1756.46 3301.24 1395.27 3312.26 1411.8C3353.89 1473.62 3435.32 1510.35 3530.21 1510.35L3535.11 1510.35 3539.39 1510.35C3699.18 1510.35 3860.19 1406.27 3860.19 1173.02L3860.19 1042.01C3860.19 874.26 3761 704.684 3538.15 704.684L3536.93 704.077 3532.66 704.077ZM3483.07 849.769C3595.72 851.612 3665.51 928.125 3665.51 1050.58L3665.51 1163.21C3665.51 1285.65 3595.09 1361.58 3481.23 1364.03 3375.32 1362.19 3301.24 1281.38 3301.24 1166.27L3301.24 1050.56C3301.24 934.242 3375.93 852.198 3483.07 849.747ZM5998.06 448.769 5624.61 1492 5834.6 1492 5906.23 1268.54 6313.95 1268.54 6313.95 1270.99 6385.59 1492.6 6595.58 1492.6 6221.52 449.376 6199.48 449.376 6198.87 448.769ZM6109.5 628.15 6265.6 1121 5952.13 1121ZM7346.77 595.697 7346.77 448.769 6706.39 448.769 6706.39 595.697 6931.06 595.697 6931.06 1343.83 6706.39 1343.83 6706.39 1490.76 7346.77 1490.76 7346.77 1343.83 7122.09 1343.83 7122.09 595.697ZM5239.51 704.077 5234 704.077 5230.94 704.077C5122.58 704.077 5045.44 740.803 5007.48 811.22L4995.85 832.653 4995.85 722.451 4810.96 722.451 4810.96 1491.39 5005.03 1491.39 5005.03 1033.45C5005.03 925.695 5063.19 863.869 5163.58 862.025 5259.71 863.869 5314.81 924.48 5314.81 1029.17L5314.81 1491.39 5508.87 1491.39 5508.87 996.09C5508.87 813.042 5408.48 704.055 5240.12 704.055ZM2483.29 427.336C2197.38 427.336 2019.23 605.502 2019.23 892.634L2019.23 1047.52C2019.23 1334.66 2196.77 1512.8 2483.29 1512.8L2487.59 1512.8 2491.86 1512.8C2777.78 1512.8 2955.92 1334.66 2955.92 1047.52L2955.92 892.634C2955.92 605.502 2777.78 427.336 2491.86 427.336L2487.59 427.336ZM2487.59 582.855C2657.79 584.699 2755.74 693.664 2755.74 882.222L2755.74 1058.54C2755.74 1247.1 2657.79 1356.09 2487.59 1357.91 2317.38 1356.07 2219.42 1247.1 2219.42 1058.54L2219.42 882.222C2219.42 693.664 2317.38 584.677 2487.59 582.855ZM797.249 0.0216933C599.493 0.0216933 423.8 127.361 362.56 315.312 235.424 341.519 125.699 421.135 61.3485 533.871-37.833 705.291-15.1853 920.792 117.686 1067.72 76.664 1190.79 90.7429 1325.46 156.257 1436.9 254.831 1608.92 453.172 1697.09 647.262 1656.06 733.23 1753.09 856.806 1808.41 986.436 1807.89 1184.19 1807.89 1359.89 1680.56 1421.13 1492.6 1548.47 1466.27 1658.06 1386.68 1721.73 1274.05 1821.52 1102.63 1798.87 887.124 1666.02 740.196L1666.02 739.588C1707.02 616.525 1692.96 481.76 1627.45 369.805 1528.85 198.385 1330.49 110.202 1137.03 151.224 1050.67 54.4597 926.944-0.59862 797.249 0.0216975ZM797.249 117.577 796.642 118.185C876.234 118.185 952.768 145.735 1013.99 196.563 1011.54 197.777 1006.63 200.836 1002.97 202.68L642.988 410.22C624.614 420.632 613.594 440.221 613.594 461.654L613.594 948.972 458.704 859.596 458.704 456.752C458.632 269.643 610.141 117.843 797.249 117.556ZM1230.9 259.451C1352.32 259.218 1464.59 323.976 1525.19 429.201 1564.37 497.774 1579.05 577.974 1565.58 655.722 1563.13 653.878 1558.25 651.449 1555.17 649.605L1195.19 441.436C1176.77 431.019 1154.24 431.019 1135.82 441.436L713.99 685.095 713.99 506.321 1062.34 304.899C1113.56 275.205 1171.69 259.522 1230.9 259.43ZM340.541 444.495 340.541 872.438C340.541 893.871 351.561 912.853 369.935 923.873L791.132 1166.92 635.613 1256.91 287.87 1056.09C126.057 962.316 70.7322 755.227 164.218 593.246 203.825 524.593 266.203 471.962 340.541 444.473ZM1147.44 550.401 1495.79 751.216C1658.04 844.888 1713.12 1051.82 1619.45 1214.06L1620.05 1214.67C1580.27 1283.24 1517.81 1335.89 1443.73 1362.84L1443.73 934.871C1443.73 913.438 1432.71 893.849 1414.34 883.458L992.532 639.778ZM891.528 697.959 1069.09 800.807 1069.09 1005.89 891.528 1108.74 713.99 1005.89 713.99 800.807ZM1170.7 859.596 1325.59 948.972 1325.59 1351.21C1325.59 1538.55 1173.76 1690.38 987.044 1690.38L987.044 1689.78C908.058 1689.78 830.917 1662.22 770.306 1611.42 772.758 1610.2 778.268 1607.12 781.326 1605.28L1141.3 1397.74C1159.68 1387.33 1171.31 1367.74 1170.68 1346.31ZM1069.67 1122.84 1069.67 1301.6 721.323 1502.41C559.079 1595.47 352.147 1540.37 258.475 1378.74L259.083 1378.74C219.297 1310.77 205.197 1229.96 218.668 1152.22 221.119 1154.06 226.022 1156.49 229.081 1158.33L589.059 1366.5C607.479 1376.92 630.013 1376.92 648.433 1366.5Z" fill="#FFFFFF" fill-rule="nonzero" fill-opacity="1" transform="matrix(1.00128 0 0 1 309 299.052)"/></g></g></g></g></svg>
